icon/pk/modify.svg

<svg viewBox="0 0 48 48" fill="none" xmlns="http://www.w3.org/2000/svg" height="1em" width="1em">
  <path d="M20.0708 9.58588L15.8282 5.34324C15.0472 4.56219 13.7808 4.56219 12.9998 5.34324L7.34292 11.0001C6.56188 11.7811 6.56188 13.0475 7.34292 13.8285L11.5856 18.0712" stroke="black" stroke-width="4" stroke-linecap="round" stroke-linejoin="round"/>
  <path d="M28.9287 37.4143L33.1714 41.6569C33.9524 42.438 35.2187 42.438 35.9998 41.6569L41.6566 36.0001C42.4377 35.219 42.4377 33.9527 41.6566 33.1717L37.414 28.929" stroke="black" stroke-width="4" stroke-linecap="round" stroke-linejoin="round"/>
  <rect x="34.6064" y="4.9082" width="12" height="42" rx="2" transform="rotate(45 34.6064 4.9082)" fill="#2F88FF" stroke="black" stroke-width="4" stroke-linecap="round" stroke-linejoin="round"/>
  <circle cx="24" cy="24" r="2" fill="white"/>
  <circle cx="20" cy="28" r="2" fill="white"/>
  <circle cx="28" cy="20" r="2" fill="white"/>
</svg>

<svg width="48" height="48" fill="none" xmlns="http://www.w3.org/2000/svg"><path d="m20.07 9.586-4.242-4.243a2 2 0 0 0-2.828 0L7.343 11a2 2 0 0 0 0 2.829l4.243 4.242M28.929 37.414l4.242 4.243a2 2 0 0 0 2.829 0L41.657 36a2 2 0 0 0 0-2.828l-4.243-4.243" stroke="#000" stroke-width="4" stroke-linecap="round" stroke-linejoin="round"/><rect x="34.606" y="4.908" width="12" height="42" rx="2" transform="rotate(45 34.606 4.908)" fill="#2F88FF" stroke="#000" stroke-width="4" stroke-linecap="round" stroke-linejoin="round"/><circle cx="24" cy="24" r="2" fill="#fff"/><circle cx="20" cy="28" r="2" fill="#fff"/><circle cx="28" cy="20" r="2" fill="#fff"/></svg>
